_site/images/icons/circle-file-white.svg

<svg height="50" viewBox="0 0 50 50" width="50" xmlns="http://www.w3.org/2000/svg"><g fill="#fff" fill-rule="evenodd"><circle cx="25" cy="25" opacity=".15" r="25"/><path d="m16 6.94c-.0104163-.0918651-.0305284-.18236942-.06-.27v-.09c-.0480811-.10282025-.1122162-.19733517-.19-.28l-6-6c-.08266483-.07778379-.17717975-.14191892-.28-.19-.0298502-.00423982-.0601498-.00423982-.09 0-.1015852-.05825865-.21377665-.0956558-.33-.11h-6.05c-1.65685425 0-3 1.34314575-3 3v14c0 1.6568542 1.34314575 3 3 3h10c1.6568542 0 3-1.3431458 3-3v-10s0 0 0-.06zm-6-3.53 2.59 2.59h-1.59c-.5522847 0-1-.44771525-1-1zm4 13.59c0 .5522847-.4477153 1-1 1h-10c-.55228475 0-1-.4477153-1-1v-14c0-.55228475.44771525-1 1-1h5v3c0 1.65685425 1.34314575 3 3 3h3zm-3.71-6.71-3.29 3.3-1.29-1.3c-.39212217-.3921222-1.02787783-.3921222-1.42 0s-.39212217 1.0278778 0 1.42l2 2c.1877666.1893127.44336246.2957983.71.2957983s.5222334-.1064856.71-.2957983l4-4c.3921222-.3921222.3921222-1.0278778 0-1.42-.3921222-.39212216-1.0278778-.39212216-1.42 0z" fill-rule="nonzero" transform="translate(17 15)"/></g></svg>

<?xml version="1.0" encoding="UTF-8"?>
<svg width="50px" height="50px" viewBox="0 0 50 50" version="1.1" xmlns="http://www.w3.org/2000/svg" xmlns:xlink="http://www.w3.org/1999/xlink">
    <!-- Generator: Sketch 52.6 (67491) - http://www.bohemiancoding.com/sketch -->
    <title>Icon Circle</title>
    <desc>Created with Sketch.</desc>
    <g id="Landing-page" stroke="none" stroke-width="1" fill="none" fill-rule="evenodd">
        <g id="1.1--Home" transform="translate(-761.000000, -4364.000000)" fill="#FFFFFF">
            <g id="photos" transform="translate(0.000000, 3830.000000)">
                <g id="Group" transform="translate(700.000000, 211.000000)">
                    <g id="active" transform="translate(45.000000, 291.000000)">
                        <g id="Icon-Circle" transform="translate(16.000000, 32.000000)">
                            <g id="Base" opacity="0.149999991">
                                <circle id="Oval" cx="25" cy="25" r="25"></circle>
                            </g>
                            <g id="file-check" transform="translate(17.000000, 15.000000)" fill-rule="nonzero">
                                <path d="M16,6.94 C15.9895837,6.8481349 15.9694716,6.75763058 15.94,6.67 L15.94,6.58 C15.8919189,6.47717975 15.8277838,6.38266483 15.75,6.3 L9.75,0.3 C9.66733517,0.222216205 9.57282025,0.158081081 9.47,0.11 C9.4401498,0.105760184 9.4098502,0.105760184 9.38,0.11 C9.2784148,0.0517413546 9.16622335,0.0143442038 9.05,-2.22044605e-16 L3,-2.22044605e-16 C1.34314575,-4.4408921e-16 -8.8817842e-16,1.34314575 -8.8817842e-16,3 L-8.8817842e-16,17 C-8.8817842e-16,18.6568542 1.34314575,20 3,20 L13,20 C14.6568542,20 16,18.6568542 16,17 L16,7 C16,7 16,7 16,6.94 Z M10,3.41 L12.59,6 L11,6 C10.4477153,6 10,5.55228475 10,5 L10,3.41 Z M14,17 C14,17.5522847 13.5522847,18 13,18 L3,18 C2.44771525,18 2,17.5522847 2,17 L2,3 C2,2.44771525 2.44771525,2 3,2 L8,2 L8,5 C8,6.65685425 9.34314575,8 11,8 L14,8 L14,17 Z M10.29,10.29 L7,13.59 L5.71,12.29 C5.31787783,11.8978778 4.68212217,11.8978778 4.29,12.29 C3.89787783,12.6821222 3.89787783,13.3178778 4.29,13.71 L6.29,15.71 C6.4777666,15.8993127 6.73336246,16.0057983 7,16.0057983 C7.26663754,16.0057983 7.5222334,15.8993127 7.71,15.71 L11.71,11.71 C12.1021222,11.3178778 12.1021222,10.6821222 11.71,10.29 C11.3178778,9.89787784 10.6821222,9.89787784 10.29,10.29 Z" id="Shape"></path>
                            </g>
                        </g>
                    </g>
                </g>
            </g>
        </g>
    </g>
</svg>
